!! 00000] TT[WS
!!!OTL: Pie baicai
!!!ARE: Asia, China, Shanxi Xingxian
!! Ethnic Group: Han
!! WII, 79 (1)
!!!SCT: J0516
!!!YEM: Copyright 1995, estate of Helmut Schaffrath.
**kern
*ICvox
*Ivox
*M2/4
*k[f#]
*G:
{8ee
8dd
8ee
8dd
=1
8b
8ee
4dd
=2
8ee
8dd
8b
8a
=3
8g
8e
4g}
=4
{8dd
8dd
8b
8dd
=5
8g
8b
4a
=6
8dd
8g
8g
8e
=7
2d}
==
!!!AGN: Xiaodiao. Qingge, Sichun
!!!ONB: ESAC (Essen Associative Code) Database: CHINA
!!!AMT: simple duple
!!!AIN: vox
!!!EED: Helmut Schaffrath
!!!EEV: 1.0
*-
